src/assets/duotone/MoneyChange.svg

<?xml version="1.0" encoding="UTF-8"?>
<svg width="24" height="24" viewBox="0 0 24 24" xmlns="http://www.w3.org/2000/svg">
 <path d="m22 9v6c0 3.5-2 5-5 5h-7.26c0.17-0.47 0.26001-0.97 0.26001-1.5 0-2.48-2.01-4.5-4.5-4.5-1.41 0-2.68 0.66-3.5 1.68v-6.68c0-3.5 2-5 5-5h10c3 0 5 1.5 5 5z" opacity=".4"/>
 <path d="m12 14.5c1.3807 0 2.5-1.1193 2.5-2.5s-1.1193-2.5-2.5-2.5-2.5 1.1193-2.5 2.5 1.1193 2.5 2.5 2.5z"/>
 <path d="m18.5 14.75c-0.41 0-0.75-0.34-0.75-0.75v-4c0-0.41 0.34-0.75 0.75-0.75s0.75 0.34 0.75 0.75v4c0 0.41-0.34 0.75-0.75 0.75z"/>
 <path d="m5.5 14c-1.41 0-2.68 0.66-3.5 1.68-0.63 0.77-1 1.75-1 2.82 0 2.49 2.02 4.5 4.5 4.5 1.96 0 3.63-1.25 4.24-3 0.17-0.47 0.26001-0.97 0.26001-1.5 0-2.48-2.01-4.5-4.5-4.5zm2.66 6.46c-0.03 0.06-0.06999 0.13-0.11999 0.18l-0.81 0.8c-0.1 0.11-0.24 0.16-0.38 0.16-0.15 0-0.28996-0.05-0.38996-0.16-0.18-0.17-0.20003-0.44-0.09002-0.64h-2.26c-0.72 0-1.31-0.59-1.31-1.32v-0.11c0-0.31 0.24999-0.55 0.54999-0.55s0.55004 0.24 0.55004 0.55v0.11c0 0.12 0.08997 0.22 0.20997 0.22h2.26c-0.11001-0.21-0.08998-0.47 0.09002-0.65 0.21-0.21 0.55996-0.21 0.76996 0l0.81 0.81c0.05 0.05 0.08999 0.11 0.11999 0.18 0.05 0.13 0.05 0.28 0 0.42zm0.04004-2.83c0 0.31-0.24999 0.55-0.54999 0.55s-0.55004-0.24-0.55004-0.55v-0.11c0-0.12-0.08997-0.22-0.20997-0.22h-2.26c0.11 0.21 0.08998 0.47-0.09002 0.65-0.1 0.1-0.23996 0.16-0.38996 0.16-0.14 0-0.28-0.06-0.38-0.16l-0.81-0.81c-0.05-0.05-0.08999-0.11-0.11999-0.18-0.05-0.13-0.05-0.28 0-0.42 0.03-0.06 0.06999-0.13 0.11999-0.18l0.81-0.8c0.21-0.22 0.55996-0.22 0.76996 0 0.18 0.17 0.20002 0.44 0.09002 0.64h2.26c0.72 0 1.31 0.59 1.31 1.32v0.11z"/>
</svg>

<svg width="24" height="24" viewBox="0 0 24 24"  xmlns="http://www.w3.org/2000/svg">
<path opacity="0.4" d="M22 9V15C22 18.5 20 20 17 20H9.73999C9.90999 19.53 10 19.03 10 18.5C10 16.02 7.99 14 5.5 14C4.09 14 2.82 14.66 2 15.68V9C2 5.5 4 4 7 4H17C20 4 22 5.5 22 9Z" />
<path d="M12 14.5C13.3807 14.5 14.5 13.3807 14.5 12C14.5 10.6193 13.3807 9.5 12 9.5C10.6193 9.5 9.5 10.6193 9.5 12C9.5 13.3807 10.6193 14.5 12 14.5Z" />
<path d="M18.5 14.75C18.09 14.75 17.75 14.41 17.75 14V10C17.75 9.59 18.09 9.25 18.5 9.25C18.91 9.25 19.25 9.59 19.25 10V14C19.25 14.41 18.91 14.75 18.5 14.75Z" />
<path d="M5.5 14C4.09 14 2.82 14.66 2 15.68C1.37 16.45 1 17.43 1 18.5C1 20.99 3.02 23 5.5 23C7.46 23 9.12999 21.75 9.73999 20C9.90999 19.53 10 19.03 10 18.5C10 16.02 7.99 14 5.5 14ZM8.15997 20.46C8.12997 20.52 8.08998 20.59 8.03998 20.64L7.22998 21.44C7.12998 21.55 6.98998 21.6 6.84998 21.6C6.69998 21.6 6.56002 21.55 6.46002 21.44C6.28002 21.27 6.25999 21 6.37 20.8H4.10999C3.38999 20.8 2.79999 20.21 2.79999 19.48V19.37C2.79999 19.06 3.04998 18.82 3.34998 18.82C3.64998 18.82 3.90002 19.06 3.90002 19.37V19.48C3.90002 19.6 3.98999 19.7 4.10999 19.7H6.37C6.25999 19.49 6.28002 19.23 6.46002 19.05C6.67002 18.84 7.01998 18.84 7.22998 19.05L8.03998 19.86C8.08998 19.91 8.12997 19.97 8.15997 20.04C8.20997 20.17 8.20997 20.32 8.15997 20.46ZM8.20001 17.63C8.20001 17.94 7.95002 18.18 7.65002 18.18C7.35002 18.18 7.09998 17.94 7.09998 17.63V17.52C7.09998 17.4 7.01001 17.3 6.89001 17.3H4.63C4.74 17.51 4.71998 17.77 4.53998 17.95C4.43998 18.05 4.30002 18.11 4.15002 18.11C4.01002 18.11 3.87002 18.05 3.77002 17.95L2.96002 17.14C2.91002 17.09 2.87003 17.03 2.84003 16.96C2.79003 16.83 2.79003 16.68 2.84003 16.54C2.87003 16.48 2.91002 16.41 2.96002 16.36L3.77002 15.56C3.98002 15.34 4.32998 15.34 4.53998 15.56C4.71998 15.73 4.74 16 4.63 16.2H6.89001C7.61001 16.2 8.20001 16.79 8.20001 17.52V17.63Z" />
</svg>
